!!!COM: Fux, Johann Joseph
!!!OMD: Gradus ad Parnassum Exercise
!!!YEC: CC0 1.0 Universal (Public Domain). Mark Gotham and FourScoreAndMore.org waive all rights to this document.
**kern	**kern	**kern
*part3	*part2	*part1
*staff3	*staff2	*staff1
*I"3	*I"2	*I"1
*I'Pno	*I'Pno	*I'Pno
!!LO:PB:g=z
*clefGv2	*clefG2	*clefG2
*k[]	*k[]	*k[]
!!LO:TX:omd:t=
*M4/4	*M4/4	*M4/4
=463	=463	=463
!	!	!LO:TX:a:t=Fig. 157; Species&colon; 5; Modal final&colon; e; Cantus firmus&colon; 2
1E	1e	2r
.	.	[2ee\
=464	=464	=464
1A	1c	4ee\]
.	.	4dd\
.	.	4cc\
.	.	4b\
=465	=465	=465
1F	1d	2a/
.	.	4g/
.	.	4f/
=466	=466	=466
1A	1c	2e/
.	.	[2a/
=467	=467	=467
1F	1A	4a/]
.	.	4b\
.	.	[2cc\
=468	=468	=468
1F	1a	2cc\]
.	.	[2ff\
=469	=469	=469
1c	1g	4ff\]
.	.	8ee\L
.	.	8dd\J
.	.	4ee\
.	.	4dd\
=470	=470	=470
1c	1e	4cc\
.	.	4g/
.	.	[2cc\
=471	=471	=471
1d	1f	2cc\]
.	.	4b\
.	.	4a/
=472	=472	=472
1e	1e	1g#X
==	==	==
*-	*-	*-
!!!software: music21 v.9.7.1
!!!software: music21 v.9.7.1
!!!software: MuseScore 3.4.2
!!!RDF**kern: > = above
!!!RDF**kern: < = below
